X:195
M:2/4
L:1/8
K:G
|:d|BG ec|dBgd|BG dB|(3ABA Ad|BG ec|dBge|d>gdB|(3GAG G:|
|:d|g(dd)g|a(dd)g|a>bag|f(dd)f|gfed|edcB|cAdB|(3GAG G:|

